assets/svg/pinterest.svg

<svg width="32" height="32" viewBox="0 0 32 32" fill="none" xmlns="http://www.w3.org/2000/svg">
<path d="M16 2.66699C8.65699 2.69399 2.71399 8.65299 2.71399 16C2.71399 21.599 6.16599 26.393 11.057 28.368L11.146 28.4C11.013 27.347 10.919 25.733 11.186 24.573L12.746 17.946C12.746 17.946 12.346 17.146 12.346 15.973C12.346 14.12 13.426 12.746 14.773 12.746C15.906 12.746 16.466 13.599 16.466 14.613C16.466 15.76 15.733 17.466 15.346 19.053C15.026 20.386 16.013 21.466 17.333 21.466C19.706 21.466 21.52 18.973 21.52 15.373C21.52 12.173 19.227 9.95999 15.947 9.95999C15.871 9.95599 15.783 9.95399 15.694 9.95399C12.505 9.95399 9.92099 12.539 9.92099 15.727C9.92099 15.729 9.92099 15.731 9.92099 15.733C9.92099 16.88 10.361 18.106 10.908 18.773C11.015 18.906 11.028 19.026 10.988 19.16L10.615 20.667C10.562 20.907 10.415 20.974 10.175 20.854C8.49499 20.067 7.45499 17.654 7.45499 15.681C7.45499 11.481 10.522 7.62799 16.282 7.62799C20.895 7.62799 24.509 10.908 24.509 15.321C24.509 19.921 21.602 23.614 17.576 23.614C16.243 23.614 14.963 22.907 14.536 22.081L13.696 25.241C13.265 26.578 12.704 27.739 12.008 28.804L12.042 28.748C13.212 29.12 14.558 29.335 15.953 29.335C23.317 29.335 29.286 23.365 29.286 16.002C29.286 8.65499 23.344 2.69599 16.004 2.66899H16.001L16 2.66699Z" fill="white"/>
</svg>

<!-- Generated by IcoMoon.io -->
<svg version="1.1" xmlns="http://www.w3.org/2000/svg" width="32" height="32" viewBox="0 0 32 32">
<title>pinterest</title>
<path fill="#fff" d="M16 2.667c-7.343 0.027-13.286 5.986-13.286 13.333 0 5.599 3.452 10.393 8.343 12.368l0.089 0.032c-0.133-1.053-0.227-2.667 0.040-3.827l1.56-6.627s-0.4-0.8-0.4-1.973c0-1.853 1.080-3.227 2.427-3.227 1.133 0 1.693 0.853 1.693 1.867 0 1.147-0.733 2.853-1.12 4.44-0.32 1.333 0.667 2.413 1.987 2.413 2.373 0 4.187-2.493 4.187-6.093 0-3.2-2.293-5.413-5.573-5.413-0.076-0.004-0.164-0.006-0.253-0.006-3.189 0-5.773 2.585-5.773 5.773 0 0.002 0 0.004 0 0.006v-0c0 1.147 0.44 2.373 0.987 3.040 0.107 0.133 0.12 0.253 0.080 0.387l-0.373 1.507c-0.053 0.24-0.2 0.307-0.44 0.187-1.68-0.787-2.72-3.2-2.72-5.173 0-4.2 3.067-8.053 8.827-8.053 4.613 0 8.227 3.28 8.227 7.693 0 4.6-2.907 8.293-6.933 8.293-1.333 0-2.613-0.707-3.040-1.533l-0.84 3.16c-0.431 1.337-0.992 2.498-1.688 3.563l0.034-0.056c1.17 0.372 2.516 0.587 3.911 0.587 7.364 0 13.333-5.97 13.333-13.333 0-7.347-5.942-13.306-13.282-13.333h-0.003z"></path>
</svg>
